X:1915
T:Galician jig
A:Galicia
M:6/8
O:Spain
R:48-bar Jig
Z:Richard Robinson 
%%TUNEURL: http://www.leeds.ac.uk/music/Info/RRTuneBk/gettune/00000d18.html
%%ID:00000d18
K:G
GBd |\
cAF FAe | dBG GBg | \
fdf ece | dBG GBd | \
cAF FAe | dBG GBg |
fed cBA | G3 ::     \
GBd |               \
e2e d2d | c3 ABc  | \
d2d c2c | c2B GBd |
e2e d2d | c3 ABc  | \
d2d c2c | c2B GAB | \
c2c B2G | A3 d2c  |
BcB AGA | c2B GAB | \
c2c B2G | A3 d2c  | \
BcB AGF | G3 :|
